app/img/logo.svg

<svg width="126" height="50" viewBox="0 0 126 50" fill="none" xmlns="http://www.w3.org/2000/svg">
<g clip-path="url(#clip0_822_5166)">
<path d="M85.6071 37.2449C85.3674 37.8979 85.0963 38.5389 84.7949 39.1657C84.4033 39.947 83.9826 40.697 83.5307 41.4157C83.4099 41.597 83.3204 41.747 83.1996 41.897C83.0798 42.047 82.9892 42.2272 82.8684 42.3761C81.3939 44.3574 79.6195 45.9491 77.5129 47.1491C74.5941 48.8293 71.1931 49.7605 67.3423 49.8501H66.8008L63.9413 37.2459H85.6071V37.2449ZM87.3534 26.4709C87.3534 30.1324 86.8723 33.4032 85.9393 36.2845H81.5761C80.6733 33.8834 79.8007 31.5136 78.8979 29.1116L75.197 26.5011C75.5281 25.2095 75.8895 23.8897 76.2196 22.5991C79.7403 21.7293 83.261 20.8886 86.8119 20.0178C86.8723 20.2574 86.9025 20.498 86.9317 20.7386C86.9629 20.9189 86.9921 21.0689 86.9921 21.2178C87.1431 22.4491 87.2628 23.5897 87.3232 24.5803V24.8501C87.3544 25.3605 87.3544 25.9303 87.3544 26.4709H87.3534ZM55.9086 8.91365C55.8714 11.4115 55.6199 13.9016 55.1568 16.3564C54.9756 17.4074 54.735 18.4574 54.4945 19.5376C54.4341 19.748 54.4039 19.9584 54.3445 20.1678C54.2841 20.3782 54.2539 20.5584 54.1935 20.7689C54.1331 21.0386 54.0436 21.3386 53.953 21.6084C53.7426 22.3584 53.5312 23.0793 53.2907 23.8001C50.5171 24.7639 47.7388 25.7143 44.956 26.6511C45.3173 24.7001 45.6484 22.7491 46.0087 20.7689C46.0691 20.348 46.1597 19.9282 46.2493 19.4772C46.2805 19.3282 46.3097 19.148 46.3399 18.998C46.7616 17.1074 47.3635 15.3366 48.1455 13.7459C49.6804 10.5949 51.8162 8.13344 54.5247 6.3324C54.8247 6.12497 55.1362 5.93473 55.4577 5.76261L55.818 5.5824V5.7324C55.8492 5.94281 55.8492 6.15219 55.8492 6.3626C55.9086 7.23344 55.9086 8.07302 55.9086 8.91365ZM51.5142 28.6012C50.2813 31.4532 48.8672 34.0334 47.2427 36.2845C47.1826 36.3471 47.1318 36.4179 47.0917 36.4949L46.9116 36.7657C46.7908 36.9147 46.671 37.0949 46.5502 37.2449C46.1889 37.7251 45.8275 38.1751 45.436 38.5959C45.3465 38.6855 45.2559 38.7751 45.1965 38.8959C45.1361 38.9553 45.0757 39.0459 44.9851 39.1053C44.8352 39.2564 44.6842 39.4355 44.5342 39.5855C44.1729 39.9762 43.8116 40.3355 43.4513 40.6959C43.2701 40.8762 43.0597 41.0564 42.8494 41.2366C42.6661 41.4151 42.475 41.5854 42.2766 41.747C42.9691 37.9345 43.6616 34.1532 44.3239 30.3428C46.7002 29.772 49.1077 29.2022 51.5153 28.6012H51.5142ZM65.8074 49.8803H65.6262C61.7754 49.7605 58.4046 48.8595 55.4556 47.1793C52.2962 45.3782 49.8887 42.7074 48.1736 39.1959C47.9251 38.6738 47.6944 38.1433 47.4822 37.6053C47.5718 37.4855 47.6624 37.3949 47.7217 37.2751C47.8425 37.1251 47.9633 36.9449 48.0841 36.7949C48.2038 36.6449 48.3236 36.4647 48.4142 36.3147C50.0387 33.9741 51.4538 31.3022 52.6878 28.3314L60.5112 26.4105C62.2565 34.2439 64.0309 42.0459 65.8074 49.8793V49.8803ZM45.2569 49.8803H31.928V48.3199C35.1201 47.4779 38.1294 46.0533 40.8042 44.1178C40.9844 43.9678 41.1947 43.847 41.3759 43.698C41.556 43.547 41.7664 43.397 41.9476 43.247C42.1277 43.097 42.3381 42.947 42.5193 42.7678C42.6994 42.5866 42.9098 42.4366 43.091 42.2574C43.6022 41.8064 44.0833 41.3564 44.5655 40.8762L45.2569 49.8803ZM67.1028 14.7355C65.1228 13.748 63.4571 12.2279 62.2927 10.3459C61.1284 8.46397 60.5114 6.29459 60.5112 4.08135V3.78136C61.3379 3.57458 62.1875 3.47377 63.0396 3.48135C63.5498 3.48135 64.0319 3.51156 64.5141 3.60115C63.9525 4.82497 63.6646 6.15664 63.6706 7.50323C63.6703 8.88787 63.978 10.2552 64.5715 11.5061C65.1649 12.7571 66.0293 13.8602 67.1018 14.7355H67.1028ZM59.4283 21.698C57.7736 22.2689 56.0887 22.8397 54.433 23.4095L54.885 21.8782C54.9152 21.7886 54.9152 21.7293 54.9454 21.6386C55.0047 21.4584 55.0349 21.2782 55.0953 21.0991C55.1557 20.9189 55.1859 20.7084 55.2463 20.5282C55.4265 19.8678 55.5764 19.2074 55.7274 18.547C56.3356 15.8131 56.7084 13.0321 56.8416 10.2345L59.4283 21.698ZM83.1704 9.24385C82.8997 10.7751 82.6581 12.2751 82.3873 13.8064C79.9194 14.6459 77.4515 15.5168 74.9554 16.3564C76.1883 14.0751 77.3921 11.7939 78.6261 9.54386C80.1415 9.45979 81.656 9.35978 83.1694 9.24385H83.1704Z" fill="#202020"/>
<path d="M86.6005 19.0573L43.4512 29.5917C43.0899 31.6333 42.7285 33.6437 42.3682 35.6844L40.0804 32.924C40.8635 31.4823 41.6757 30.0115 42.4578 28.5719C56.6 23.7094 70.7432 18.8479 84.8854 14.0156C85.6081 15.5156 86.1798 17.1969 86.6005 19.0573ZM73.3611 13.776V14.1656C73.3611 14.5562 73.3309 14.9156 73.2715 15.276C73.2403 15.5156 73.2112 15.726 73.1508 15.9667H72.9998C68.3659 15.876 64.6348 12.125 64.6348 7.47292C64.6348 6.15208 64.9368 4.89167 65.4783 3.78125C69.9914 4.89167 73.3611 8.94375 73.3611 13.776Z" fill="#202020"/>
<path d="M79.9798 5.01208L74.112 15.9058C74.2327 15.2152 74.3233 14.5256 74.3233 13.7756C74.3233 8.79333 71.0734 4.56103 66.5894 3.09124C66.3791 3.03083 66.1989 2.97041 65.9876 2.91104C65.8376 2.87979 65.6564 2.82041 65.5065 2.7902C65.3263 2.76103 65.1753 2.73083 64.9952 2.70062C64.3503 2.5798 63.6956 2.51947 63.0396 2.52041C62.1961 2.52041 61.3839 2.61104 60.5716 2.79124C62.5189 1.33819 64.8106 0.417038 67.2215 0.118327C67.5235 0.0881185 67.8234 0.0589518 68.1545 0.0287435C68.4253 -0.00146484 68.696 -0.00146484 68.9668 -0.00146484H69.1178C71.5243 0.0287435 73.811 0.658952 75.7979 1.76937C75.827 1.76937 75.8572 1.79958 75.8572 1.79958C75.8572 1.79958 76.5195 2.18916 77.061 2.57978C77.5129 2.87979 78.6261 3.72041 79.9798 5.01103V5.01208ZM8.15355 47.9287C6.95083 47.3287 5.95845 46.6381 5.14517 45.8277L1.6255 49.3392H0V37.1558H2.55749C3.15208 39.1693 4.06621 41.0741 5.26493 42.7975C7.88385 46.5194 11.2536 48.3808 15.4064 48.3808C17.8431 48.3808 19.7997 47.66 21.244 46.1892C22.6883 44.7485 23.4412 42.7975 23.4412 40.3662C23.4557 38.9997 23.0105 37.6679 22.177 36.585C21.3073 35.4348 20.2489 34.4405 19.0468 33.6444C17.8139 32.8037 16.0686 31.7235 13.8413 30.4329C11.013 28.8423 8.72628 27.4319 6.95083 26.1412C5.16766 24.825 3.64708 23.1859 2.46793 21.309C1.23397 19.3569 0.601884 17.0767 0.601884 14.4058C0.601884 12.3058 1.20377 10.4152 2.37734 8.73395C3.55091 7.05374 5.32636 5.7027 7.6735 4.68187C10.0206 3.69228 12.9093 3.18187 16.3394 3.18187C18.8365 3.18187 21.3044 3.87249 23.8015 5.31312C24.7345 5.82353 25.6967 6.51312 26.6297 7.35374L30.1504 3.84228H31.7458V16.0267H29.1883C28.6155 13.986 27.8033 12.1256 26.6901 10.4444C25.6905 8.85895 24.3926 7.48279 22.8685 6.39228C21.394 5.31208 19.6498 4.80166 17.6629 4.80166C15.9781 4.80166 14.5639 5.46208 13.3602 6.78187C12.1564 8.1027 11.5545 9.78395 11.5545 11.8548C11.5545 13.4454 12.0064 14.8548 12.9395 16.1152C13.8801 17.3984 15.0294 18.5147 16.3394 19.4173C17.6931 20.3475 19.529 21.4881 21.8459 22.809C24.5533 24.3402 26.7203 25.7204 28.4062 26.9204C30.0912 28.116 31.5313 29.6238 32.6486 31.3621C33.792 33.1329 34.3938 35.1746 34.3938 37.485C34.3938 39.7954 33.7316 41.8965 32.407 43.7871C31.0845 45.6777 29.0977 47.209 26.4194 48.3183C23.7713 49.4308 20.5213 49.9996 16.7309 49.9996C13.6611 49.9694 10.8329 49.2798 8.1546 47.9287H8.15355ZM89.9703 48.9787L94.0023 47.9892V5.19124L89.9703 4.20166V3.21104H109.079V4.20062L105.047 5.19124V48.3183H119.459C120.904 44.8673 122.378 41.4162 123.823 37.9642H125.839V49.9996H89.9703V48.9787Z" fill="#202020"/>
</g>
<defs>
<clipPath id="clip0_822_5166">
<rect width="126" height="50" fill="white"/>
</clipPath>
</defs>
</svg>

<svg width="126" height="50" fill="none" xmlns="http://www.w3.org/2000/svg"><g clip-path="url(#clip0_822_5166)" fill="#202020"><path d="M85.607 37.245a21.64 21.64 0 01-.812 1.92 26.689 26.689 0 01-1.264 2.25c-.121.182-.21.332-.331.482-.12.15-.21.33-.332.48-1.474 1.98-3.248 3.572-5.355 4.772-2.919 1.68-6.32 2.611-10.17 2.701H66.8l-2.86-12.604h21.666v-.001zm1.746-10.774c0 3.661-.48 6.932-1.414 9.814h-4.363c-.903-2.402-1.775-4.771-2.678-7.173l-3.701-2.61c.331-1.293.692-2.612 1.023-3.903 3.52-.87 7.041-1.71 10.592-2.581.06.24.09.48.12.72.03.18.06.33.06.48.151 1.231.27 2.372.331 3.362v.27c.031.51.031 1.08.031 1.62zM55.91 8.914a43.655 43.655 0 01-.752 7.442c-.181 1.051-.422 2.101-.662 3.182-.06.21-.091.42-.15.63-.06.21-.091.39-.151.6-.06.27-.15.57-.241.84a47.11 47.11 0 01-.662 2.192 906.78 906.78 0 01-8.335 2.851c.361-1.95.692-3.902 1.053-5.882.06-.421.15-.84.24-1.292.032-.149.06-.329.09-.479.423-1.89 1.025-3.661 1.806-5.252 1.535-3.151 3.671-5.613 6.38-7.414.3-.207.611-.397.933-.57l.36-.18v.15c.031.21.031.42.031.63.06.871.06 1.711.06 2.552zM51.514 28.6c-1.233 2.852-2.647 5.432-4.271 7.684a.912.912 0 00-.151.21l-.18.27c-.121.15-.241.33-.362.48-.361.48-.722.93-1.114 1.35-.09.09-.18.18-.24.3-.06.06-.12.15-.21.21-.15.151-.302.33-.452.48-.361.391-.722.75-1.083 1.11-.18.181-.391.361-.602.542a8.662 8.662 0 01-.572.51c.692-3.813 1.385-7.594 2.047-11.404 2.376-.571 4.784-1.14 7.191-1.742zm14.293 21.28h-.18c-3.852-.12-7.222-1.022-10.171-2.702-3.16-1.8-5.567-4.472-7.282-7.983a25.309 25.309 0 01-.692-1.59c.09-.12.18-.211.24-.33.12-.15.241-.331.362-.481.12-.15.24-.33.33-.48 1.625-2.34 3.04-5.013 4.274-7.984l7.823-1.92c1.745 7.833 3.52 15.635 5.296 23.468v.001zm-20.55 0H31.928v-1.56a26.802 26.802 0 008.876-4.202c.18-.15.39-.271.572-.42.18-.151.39-.301.572-.451.18-.15.39-.3.571-.48.18-.18.39-.33.572-.51.511-.45.992-.9 1.474-1.38l.692 9.003zm21.846-35.145A11.904 11.904 0 0160.51 4.08v-.3a10.051 10.051 0 012.529-.3c.51 0 .992.03 1.474.12a9.257 9.257 0 00-.843 3.902 9.333 9.333 0 003.43 7.232h.002zm-7.675 6.962c-1.654.57-3.34 1.142-4.995 1.712l.452-1.532c.03-.09.03-.149.06-.24.06-.18.09-.36.15-.539.06-.18.09-.39.151-.57.18-.661.33-1.322.481-1.982a49.013 49.013 0 001.115-8.313l2.586 11.464zM83.17 9.244c-.27 1.531-.512 3.031-.783 4.562-2.468.84-4.936 1.71-7.432 2.55 1.233-2.28 2.437-4.562 3.671-6.812 1.515-.084 3.03-.184 4.543-.3h.001z"/><path d="M86.6 19.057L43.451 29.592c-.361 2.041-.723 4.052-1.083 6.092l-2.288-2.76c.784-1.442 1.596-2.912 2.378-4.352 14.142-4.863 28.285-9.724 42.427-14.556.723 1.5 1.295 3.18 1.715 5.041zm-13.239-5.281v.39c0 .39-.03.75-.09 1.11-.03.24-.06.45-.12.69H73c-4.634-.09-8.365-3.841-8.365-8.493 0-1.32.302-2.581.843-3.692 4.513 1.11 7.883 5.163 7.883 9.995z"/><path d="M79.98 5.012l-5.868 10.894c.12-.69.211-1.38.211-2.13 0-4.983-3.25-9.215-7.734-10.685-.21-.06-.39-.12-.601-.18-.15-.031-.332-.09-.481-.12-.18-.03-.332-.06-.512-.09-.645-.121-1.3-.182-1.955-.18-.844 0-1.656.09-2.468.27a13.997 13.997 0 016.65-2.673c.302-.03.601-.059.933-.09.27-.03.541-.03.812-.03h.15c2.407.03 4.694.661 6.68 1.771.03 0 .06.03.06.03s.662.39 1.204.78c.452.3 1.565 1.141 2.919 2.432v.001zM8.154 47.93c-1.203-.6-2.196-1.29-3.009-2.101l-3.52 3.511H0V37.156h2.557a19.603 19.603 0 002.708 5.642c2.619 3.721 5.989 5.583 10.141 5.583 2.437 0 4.394-.721 5.838-2.192 1.444-1.44 2.197-3.392 2.197-5.823a6.093 6.093 0 00-1.264-3.781 12.75 12.75 0 00-3.13-2.94c-1.233-.841-2.978-1.922-5.206-3.212-2.828-1.59-5.115-3.001-6.89-4.292a17.727 17.727 0 01-4.483-4.832C1.234 19.357.602 17.077.602 14.406c0-2.1.602-3.99 1.775-5.672 1.174-1.68 2.95-3.031 5.296-4.052 2.348-.99 5.236-1.5 8.666-1.5 2.498 0 4.965.69 7.463 2.131.933.51 1.895 1.2 2.828 2.04l3.52-3.51h1.596v12.184h-2.558c-.572-2.041-1.385-3.901-2.498-5.583a14.475 14.475 0 00-3.822-4.052c-1.474-1.08-3.218-1.59-5.205-1.59-1.685 0-3.1.66-4.303 1.98-1.204 1.32-1.805 3.002-1.805 5.073 0 1.59.451 3 1.385 4.26.94 1.283 2.09 2.4 3.4 3.302 1.353.93 3.189 2.071 5.506 3.392 2.707 1.531 4.874 2.911 6.56 4.111a16.16 16.16 0 014.243 4.442c1.143 1.77 1.745 3.813 1.745 6.123s-.662 4.412-1.987 6.302c-1.322 1.89-3.31 3.422-5.988 4.531C23.771 49.431 20.521 50 16.731 50c-3.07-.03-5.898-.72-8.576-2.071h-.001zm81.816 1.05l4.032-.99V5.191l-4.032-.99v-.99h19.109v.99l-4.032.99v43.127h14.412c1.445-3.45 2.919-6.902 4.364-10.354h2.016V50H89.97v-1.021z"/></g><defs><clipPath id="clip0_822_5166"><path fill="#fff" d="M0 0h126v50H0z"/></clipPath></defs></svg>
